assets/Rabbit/Flat/rabbit_flat.svg

<svg width="32" height="32" viewBox="0 0 32 32" fill="none" xmlns="http://www.w3.org/2000/svg">
<path fill-rule="evenodd" clip-rule="evenodd" d="M17.4889 5.3447C17.7732 4.67235 17.7502 3.88017 17.3598 3.19996C16.6598 1.98996 15.0798 1.62996 13.9198 2.41996L8.64818 6.02814C5.99365 6.31089 3.7108 7.71568 2.62948 10.0965C2.5729 10.2211 2.51779 10.3533 2.46987 10.4683L2.46692 10.4754L1.41929 12.9997C1.13231 13.6642 1 14.3783 1 15.08C1 17.7923 3.20772 20 5.92 20H8.03003V27.1718C6.86681 27.5852 6.03003 28.698 6.03003 30V30C6.03003 30.5523 6.47774 31 7.03003 31C12.01 31 16.99 31 21.9699 31C24.2099 31 26.1996 29.5657 26.9168 27.4518C27.0999 26.9131 27.2868 26.3708 27.4745 25.8261C27.875 24.664 28.2796 23.4901 28.6588 22.3171L28.6634 22.3028L28.6676 22.2883C28.8821 21.5493 29 20.7842 29 20C29 19.3731 28.9167 18.701 28.7792 18.0963C28.7446 17.9444 28.7054 17.7912 28.6612 17.6396C30.0414 17.0087 31 15.6167 31 14C31 11.7908 29.2091 9.99999 27 9.99999C25.3782 9.99999 23.9825 10.9647 23.3545 12.3519C22.6099 12.123 21.819 12 21 12H19.6146C21.4802 11.9921 23 10.4674 23 8.60002C23 6.62149 21.3179 5.0476 19.3327 5.20301L19.3317 5.20309L17.4889 5.3447Z" fill="#9B9B9B"/>
<path d="M9 7.00003L19.41 6.20003C20.81 6.09003 22 7.20003 22 8.60003C22 9.92003 20.92 11 19.6 11H14.66C14.88 11.63 15 12.3 15 13H21C22.0819 13 23.1048 13.2447 24.0167 13.6812C24.1759 12.1742 25.4508 11 27 11C28.6569 11 30 12.3431 30 14C30 15.5519 28.8216 16.8286 27.3107 16.9841C27.7073 17.61 28 18.9104 28 20C28 20.683 27.8974 21.3543 27.7073 22.0096C27.1531 23.7238 26.5498 25.424 25.97 27.13C25.39 28.84 23.78 30 21.97 30C21.97 30 15.031 30 14 30C14 28.9 14.9 28 16 28H16.7C16.87 28 17.01 27.86 17.01 27.69V27H14.03L13.32 29.12C13.14 29.65 12.65 30 12.1 30H7.03003C7.03003 28.9 7.93003 28 9.03003 28V19H5.92C3.76 19 2 17.24 2 15.08C2 14.5 2.11 13.92 2.34 13.39L3.39 10.86C3.44 10.74 3.49 10.62 3.54 10.51C4.48 8.44003 6.52 7.19003 9 7.00003Z" fill="white"/>
<path d="M19.49 7.18994H19.6C20.39 7.18994 21.03 7.84994 20.99 8.64994C20.96 9.40994 20.31 9.99994 19.55 9.99994H12.51C12.22 9.99994 12 9.71994 12.07 9.42994C12.31 8.43994 13.16 7.67994 14.22 7.59994L19.49 7.18994Z" fill="#FF8687"/>
<path d="M2 15.08C2.12 15.03 2.25 15 2.38 15C2.94 15 3.38 15.45 3.38 16C3.38 16.51 3 16.93 2.5 16.99C2.18 16.43 2 15.78 2 15.08Z" fill="#FF8687"/>
<path d="M6.81 14.62C7.25735 14.62 7.62 14.2574 7.62 13.81C7.62 13.3626 7.25735 13 6.81 13C6.36265 13 6 13.3626 6 13.81C6 14.2574 6.36265 14.62 6.81 14.62Z" fill="#1C1C1C"/>
</svg>

<svg xmlns="http://www.w3.org/2000/svg" width="32" height="32" fill="none"><path fill="#9B9B9B" fill-rule="evenodd" d="M17.489 5.345a2.412 2.412 0 0 0-.13-2.145 2.406 2.406 0 0 0-3.44-.78L8.65 6.028c-2.655.283-4.938 1.688-6.02 4.069-.056.124-.111.256-.16.371l-.002.007L1.419 13A5.254 5.254 0 0 0 1 15.08 4.926 4.926 0 0 0 5.92 20h2.11v7.172a3.008 3.008 0 0 0-2 2.828 1 1 0 0 0 1 1h14.94a5.23 5.23 0 0 0 4.947-3.548c.183-.539.37-1.081.557-1.626.401-1.162.806-2.336 1.185-3.509l.004-.014.005-.015A8.188 8.188 0 0 0 29 20a8.825 8.825 0 0 0-.339-2.36 4 4 0 1 0-5.306-5.288A8.002 8.002 0 0 0 21 12h-1.385a3.404 3.404 0 1 0-.282-6.797h-.001l-1.843.142Z" clip-rule="evenodd"/><path fill="#fff" d="m9 7 10.41-.8a2.404 2.404 0 1 1 .19 4.8h-4.94c.22.63.34 1.3.34 2h6c1.082 0 2.105.245 3.017.681a3 3 0 1 1 3.294 3.303C27.707 17.61 28 18.91 28 20c0 .683-.103 1.354-.293 2.01-.554 1.714-1.157 3.414-1.737 5.12a4.23 4.23 0 0 1-4 2.87H14c0-1.1.9-2 2-2h.7c.17 0 .31-.14.31-.31V27h-2.98l-.71 2.12c-.18.53-.67.88-1.22.88H7.03c0-1.1.9-2 2-2v-9H5.92C3.76 19 2 17.24 2 15.08c0-.58.11-1.16.34-1.69l1.05-2.53c.05-.12.1-.24.15-.35C4.48 8.44 6.52 7.19 9 7Z"/><path fill="#FF8687" d="M19.49 7.19h.11c.79 0 1.43.66 1.39 1.46-.03.76-.68 1.35-1.44 1.35h-7.04a.46.46 0 0 1-.44-.57 2.4 2.4 0 0 1 2.15-1.83l5.27-.41ZM2 15.08c.12-.05.25-.08.38-.08.56 0 1 .45 1 1 0 .51-.38.93-.88.99a3.83 3.83 0 0 1-.5-1.91Z"/><path fill="#1C1C1C" d="M6.81 14.62a.81.81 0 1 0 0-1.62.81.81 0 0 0 0 1.62Z"/></svg>
